X: 18035
T: Hummersea, The
R: slide
M: 12/8
K: Gmajor
|:A|G3 GFE DEF GAB|A3 ABd e2d B2A|
GAB AGF GFE DEG|A3 ABd e2d B2:|
|:d|e3 efg Bde dBG|A3 ABd e2d B2d|
e3 efg Bde dBG|bag fga gfe dB:|

